assets/img/icons/duotone-icons/Weather/Rain#2.svg

<?xml version="1.0" encoding="UTF-8"?>
<svg width="24px" height="24px" viewBox="0 0 24 24" version="1.1" xmlns="http://www.w3.org/2000/svg" xmlns:xlink="http://www.w3.org/1999/xlink">
    <!-- Generator: Sketch 52.2 (67145) - http://www.bohemiancoding.com/sketch -->
    <title>Stockholm-icons / Weather / Rain#2</title>
    <desc>Created with Sketch.</desc>
    <g id="Stockholm-icons-/-Weather-/-Rain#2" stroke="none" stroke-width="1" fill="none" fill-rule="evenodd">
        <polygon id="Shape" points="0 0 24 0 24 24 0 24"></polygon>
        <path d="M5.74714567,14.0425758 C4.09410362,12.9740356 3,11.1147886 3,9 C3,5.6862915 5.6862915,3 9,3 C11.7957591,3 14.1449096,4.91215918 14.8109738,7.5 L17.25,7.5 C19.3210678,7.5 21,9.17893219 21,11.25 C21,13.3210678 19.3210678,15 17.25,15 L8.25,15 C7.28817895,15 6.41093178,14.6378962 5.74714567,14.0425758 Z" id="Combined-Shape" fill="#335EEA"></path>
        <path d="M6.5,21 C5.67157288,21 5,20.3284271 5,19.5 C5,18.9477153 5.5,18.1143819 6.5,17 C7.5,18.1143819 8,18.9477153 8,19.5 C8,20.3284271 7.32842712,21 6.5,21 Z M11.5,21 C10.6715729,21 10,20.3284271 10,19.5 C10,18.9477153 10.5,18.1143819 11.5,17 C12.5,18.1143819 13,18.9477153 13,19.5 C13,20.3284271 12.3284271,21 11.5,21 Z M16.5,21 C15.6715729,21 15,20.3284271 15,19.5 C15,18.9477153 15.5,18.1143819 16.5,17 C17.5,18.1143819 18,18.9477153 18,19.5 C18,20.3284271 17.3284271,21 16.5,21 Z" id="Combined-Shape" fill="#335EEA" opacity="0.3"></path>
    </g>
</svg>

<svg width="24" height="24" viewBox="0 0 24 24" xmlns="http://www.w3.org/2000/svg"><g fill="none" fill-rule="evenodd"><path d="M0 0h24v24H0z"/><path d="M5.747 14.043A6 6 0 1114.811 7.5h2.439a3.75 3.75 0 010 7.5h-9c-.962 0-1.84-.362-2.503-.957z" fill="#335EEA"/><path d="M6.5 21A1.5 1.5 0 015 19.5c0-.552.5-1.386 1.5-2.5 1 1.114 1.5 1.948 1.5 2.5A1.5 1.5 0 016.5 21zm5 0a1.5 1.5 0 01-1.5-1.5c0-.552.5-1.386 1.5-2.5 1 1.114 1.5 1.948 1.5 2.5a1.5 1.5 0 01-1.5 1.5zm5 0a1.5 1.5 0 01-1.5-1.5c0-.552.5-1.386 1.5-2.5 1 1.114 1.5 1.948 1.5 2.5a1.5 1.5 0 01-1.5 1.5z" fill="#335EEA" opacity=".3"/></g></svg>
